X: 3861
T: Black Ribbon, The
R: reel
M: 4/4
K: Gmajor
|:GBdB eBdB|cBAB GDEF|GBdB eBdB|edcB AcBA|
GBdB eBdB|cdef gdga|bgaf gfed|1 BcAB G2D2:|2 BcAB GFGA||
|:Be~e2ge~e2|Bdef gfed|Be~e2ge~e2|fedf~e2ed|
Be~e2ge~e2|Bdef gdga|bgaf gfed|1 BcAB GFGA:|2 BcAB G2D2||

